X:1
T:Title
%%score { ( 1 4 ) | ( 2 3 ) }
L:1/8
M:6/8
K:Ab
V:1 treble nm="Grand Piano"
V:4 treble 
V:2 bass 
V:3 bass 
V:1
 z3 z2[Q:1/4=87] [Ec] | [Ec][=D_c][E=c] [Fd]cB | B2 c A2 A | AGF cB[=DA] | %4
[M:5/8] [EB]-[EB]- [EB]3 |[M:1/8] [Ec] |[M:3/4] [Ec][=D_c] [E=c] [Fd]2 [Ec] | B2 c A2 F | %8
 EF A c2 B |[M:5/8] [CA]-[CA]- [CA]3 |[M:1/8] [EG]/A/ |[M:3/4] .[EGB]2 [CAc][_Ge] d[=GB] | %12
 A2 B c2 [Ec] | [EB]2 z/ z/4 B/4 [=DA]2 [DF] |[M:5/8] E-E- E3 |[M:1/8] c/d/ | %16
[M:3/4] ed c [FB]2 [Fc] | [Fd]3 [B,F]2 [DFB] | [CEA]B c B2 G |[M:5/8] [CA]-[CA]- [CA]3 |] %20
V:2
 z3 z2 [A,,A,] | [A,,A,]2 [A,,A,] z E[E,G,D] | D2 E [F,A,C]2 [F,A,C] | CB,[F,A,C] A,G,[B,,F,] | %4
[M:5/8] [E,G,]-[E,G,]- [E,G,]3 |[M:1/8] [A,,A,] |[M:3/4] [A,,A,]2 [A,,A,] [A,,A,]2 [A,,A,] | %7
 [E,D]2 [=E,C] [F,A,C]2 [=D,A,_C] | [E,A,C]2 [E,F,C] [E,G,E]2 [E,G,D] | %9
[M:5/8] [A,,A,]-[A,,A,]- [A,,A,]3 |[M:1/8] z/ F/ |[M:3/4] z D E,E,- [E,B,G][E,D] | %12
 [F,C]2 [G,B,E] [A,E]2 [A,,F,] | [B,,G,]2 [B,,B,] [B,,F,]2 [B,,A,] | %14
[M:5/8] E,-[E,-B,][E,-A,] [E,G,]2 |[M:1/8] [A,E] |[M:3/4] E2 z2 z2 | [B,,B,]3 D,2 D, | %18
 z [B,D] [E,A,C] [E,G,D]2 [E,B,D] |[M:5/8] [A,,A,]-[A,,A,]- [A,,A,]3 |] %20
V:3
 x6 | z3 .[A,,A,]3 | [E,G,]3 z3 | .F,3 .B,,3 |[M:5/8] x5 |[M:1/8] x |[M:3/4] x6 | G,4 z2 | x6 | %9
[M:5/8] x5 |[M:1/8] [E,B,] |[M:3/4] E,2 z =A, z2 | x6 | x6 |[M:5/8] G, z z z2 |[M:1/8] z/ B,/ | %16
[M:3/4] [A,C][G,B,] [A,E] [D,F,]2 [C,=A,] | x6 | E,2 z2 z2 |[M:5/8] x5 |] %20
V:4
 x6 | x6 | x6 | z3 .=D3 |[M:5/8] x5 |[M:1/8] x |[M:3/4] x6 | x6 | x6 |[M:5/8] x5 |[M:1/8] x | %11
[M:3/4] x6 | x6 | z2 .[EG]2 z2 |[M:5/8] z DC B,2 |[M:1/8] x |[M:3/4] x6 | x6 | x6 |[M:5/8] x5 |] %20

